X:1
T:Belovèd, Now Are We
T:Belovèd, Now Are We
T:James McGranahan
T:Daniel Webster Whittle, 1883
T:Public Domain Courtesy of the Cyber Hymnal™
T:Public Domain Courtesy of the Cyber Hymnal™
C:James McGranahan
Z:Public Domain
Z:Courtesy of the Cyber Hymnal™
%%score ( 1 2 ) ( 3 4 )
L:1/8
Q:1/4=105
M:4/4
K:C
V:1 treble 
V:2 treble 
V:3 bass 
V:4 bass 
V:1
 [EG]2 [EG]2 [EG]3 [Ec] | ([CE][DF][EG])[FA] [EG]2 [Ec]2 | [FA]2 [FA]2 [^FA]3 [Fc] | %3
w: 1.~Sons of God, be-|lovèd * * in Je- sus!|O the won- drous|
w: 2.~Bless- èd hope now|bright- * * ly beam- ing,|On our God we|
w: 3.~By the power of|grace * * trans- form- ing,|We shall then His|
 ([GB][^FA]G)[DF] G4 | [EG]2 [EG]2 [EG]3 [Ec] | ([CE][DF][EG])[FA] [EG]2 [Ec]2 | %6
w: word * * of grace;|In His Son the|Fa- * * ther sees us,|
w: soon * * shall gaze;|And in light ce-|les- * * tial gleam- ing,|
w: im- * * age bear;|Christ His prom- ised|word * * per- form- ing,|
 [Gc]3 [GB] ([FA][GB][Ac])[Fd] | [Ec]2 B2 !fermata![Ec]3 ||[M:12/8]"^Refrain" [EG] | %9
w: And as sons * * He|gives us place.||
w: We shall see * * our|Sav- ior’s face.|Be-|
w: We shall then * * His|glo- ry share.||
 [EG]3 [CE]3 [Ec]3- [Ec]2 [EG] | [GB]2 [FA] [EG]2 [DF] [CE]4 [DF][EG] | %11
w: ||
w: lov- èd, now * are|we the sons of God, And it|
w: ||
 [FA]2 [FA] [FA]2 [FA] [Ac]4 [GB][FA] | [FA]3 [EG]6 G2 G | d6- dcB BAB | c6- [Ec]3 [EG]3 | %15
w: ||||
w: doth not yet ap- pear what we|shall be; But we|know * that when He shall ap-|pear; We know|
w: ||||
 [Ge]6- [Ge][Fd][Ec] [Ec][DB][Ec] | [Fd]6- [Fd]3 [Gd][Gc][Gd] | [Ge]3 [Gc]6 [Gc][GB][Gc] | %18
w: |||
w: * * that when He shall ap-|pear, * We shall be|like Him, we shall be|
w: |||
 [Fd]3 [FA]6 [FA][Fd][Af] | [Ge]3- [Ge]2 [Ec] [Fd]3- [Fd]2 [Fd] | [Ec]6- [Ec]3- [Ec]2 z |] %21
w: |||
w: like Him, For we shall|see * Him as * He|is. * *|
w: |||
V:2
 x8 | x8 | x8 | x2 G (D2 =F2) x | x8 | x8 | x8 | x2 (DF) x3 ||[M:12/8] x | x12 | x12 | x12 | %12
 x9 G2 G | (F3 F3 F3) F3 | EEEEEE x6 | x12 | x12 | x12 | x12 | x12 | x12 |] %21
V:3
 [C,C]2 [C,C]2 [C,C]3 [C,G,] | [C,G,]3 [C,C] [C,C]2 [C,C]2 | [F,C]2 [F,C]2 [D,C]3 [D,A,] | %3
w: ~ ~ ~ ~|~ ~ ~ ~|~ ~ ~ ~|
 (DCB,)[D,A,] [G,,B,]4 | [C,C]2 [C,C]2 [C,C]3 [C,G,] | [C,G,]3 [C,C] [C,C]2 [C,G,]2 | %6
w: ~ * * ~ ~|~ ~ ~ ~|~ ~ ~ ~|
 [E,C]3 [E,C] [F,C]3 [F,A,] | G,2 [G,,G,]2 !fermata![C,G,]3 ||[M:12/8] [C,C] | %9
w: ~ ~ ~ ~|~ ~ ~|~|
 [C,C]3 [C,G,]3 [C,G,]3- [C,G,]2 [C,E] | [G,,D]2 [G,,D] [G,,D]2 [G,,D] [C,C]4 [C,C][C,C] | %11
w: ~ ~ ~ * ~|~ ~ ~ ~ ~ ~ ~|
 [F,C]2 [F,C] [F,C]2 [F,C] [F,C]4 [F,C][F,C] | [C,C]3 [C,C]6 G,2 G, | %13
w: ~ ~ ~ ~ ~ ~ ~|~ ~ But we|
 [G,B,]3 [G,B,]3 [G,B,]3 [G,,G,D]3 | [C,C][C,G,][C,G,] [C,G,][C,G,][C,G,] [C,G,]3 [C,G,]3 | %15
w: know, we know, we|know that when He shall ap- pear; We|
 [C,C]3 [C,C]3 [C,C]3 [A,C]3 | [G,B,][G,B,][G,B,] [G,B,][G,B,][G,B,] [G,B,]3 [G,F][A,E][B,D] | %17
w: know, we know we|know that when He shall ap- pear; * * *|
 C3 [CE]6 [C,E][D,D][E,C] | [F,A,]3 [F,D]6 [F,C][F,C][F,C] | %19
w: ||
 [G,C]3- [G,C]2 [G,C] [G,B,]3- [G,B,]2 [G,B,] | [C,G,C]6- [C,G,C]3- [C,G,C]2 z |] %21
w: ||
V:4
 x8 | x8 | x8 | D,3 x5 | x8 | x8 | x8 | G,2 x5 ||[M:12/8] x | x12 | x12 | x12 | x9 G,2 G, | x12 | %14
 x12 | x12 | x12 | C3 x9 | x12 | x12 | x12 |] %21

